brandFactory_export/2.Regular/Calavera _2Regular.svg

<?xml version="1.0" encoding="UTF-8"?>
<svg width="24px" height="24px" viewBox="0 0 24 24" version="1.1" xmlns="http://www.w3.org/2000/svg" xmlns:xlink="http://www.w3.org/1999/xlink">
    <title>2.Regular/Calavera _2Regular</title>
    <g id="Symbols" stroke="none" stroke-width="1" fill="none" fill-rule="evenodd">
        <g id="2.Regular/Calavera-_2Regular" fill="#5CB615" fill-rule="nonzero">
            <path d="M7.3092437,12.8235294 C8.03193277,12.810084 9.23865546,12.5310924 9.23865546,10.810084 C9.23865546,10.6756303 9.23193277,10.5478992 9.21512605,10.4268908 C9.05378151,9.03193277 7.94453782,8.79663866 7.29915966,8.78319328 L7.0605042,8.77983193 L7.05714286,8.77983193 C6.41176471,8.78655462 5.30588235,9.01512605 5.17478992,10.4739496 C5.16470588,10.5747899 5.16134454,10.6823529 5.16134454,10.7932773 C5.16134454,12.4504202 6.20672269,12.810084 7.08067227,12.8235294 L7.3092437,12.8235294 Z M10.805042,10.810084 C10.805042,13.3915966 8.9394958,14.3462185 7.34621849,14.3731092 C7.29915966,14.3731092 7.24201681,14.3764706 7.18487395,14.3764706 L7.06722689,14.3764706 C5.46722689,14.3529412 3.60168067,13.4016807 3.60168067,10.7932773 C3.60168067,10.6352941 3.60840336,10.4840336 3.62184874,10.3394958 C3.82352941,8.06722689 5.59495798,7.24369748 7.04705882,7.2302521 C7.14453782,7.22689076 7.25210084,7.2302521 7.3394958,7.23361345 C8.83529412,7.27058824 10.5226891,8.08067227 10.7747899,10.2521008 C10.7915966,10.4235294 10.805042,10.6117647 10.805042,10.810084 L10.805042,10.810084 Z M16.6638655,12.8235294 C17.3865546,12.810084 18.5932773,12.5310924 18.5932773,10.810084 C18.5932773,10.6756303 18.5865546,10.5478992 18.5697479,10.4268908 C18.4084034,9.03193277 17.2991597,8.79663866 16.6537815,8.78319328 L16.4151261,8.77983193 L16.4117647,8.77983193 C15.7663866,8.78655462 14.6605042,9.01512605 14.5294118,10.4739496 C14.5193277,10.5747899 14.5159664,10.6823529 14.5159664,10.7932773 C14.5159664,12.4504202 15.5613445,12.810084 16.4352941,12.8235294 L16.6638655,12.8235294 L16.6638655,12.8235294 Z M20.1260504,10.2487395 C20.1462185,10.4235294 20.1596639,10.6117647 20.1596639,10.810084 C20.1596639,13.3915966 18.2941176,14.3462185 16.7008403,14.3731092 C16.6537815,14.3731092 16.5966387,14.3764706 16.5394958,14.3764706 L16.4218487,14.3764706 C14.8218487,14.3529412 12.9563025,13.4016807 12.9563025,10.7932773 C12.9563025,10.6352941 12.9630252,10.4840336 12.9764706,10.3394958 C13.1781513,8.06722689 14.9495798,7.24369748 16.4016807,7.2302521 C16.4890756,7.2302521 16.6033613,7.2302521 16.6941176,7.23361345 C18.1865546,7.26722689 19.8739496,8.07731092 20.1260504,10.2487395 L20.1260504,10.2487395 Z M11.1579832,15.1092437 C11.5579832,15.2773109 11.7428571,15.7310924 11.5747899,16.1243697 L11.1378151,17.1529412 C11.010084,17.4487395 10.7210084,17.6268908 10.4184874,17.6268908 C10.3176471,17.6268908 10.2134454,17.6067227 10.1159664,17.5663866 C9.71596639,17.3983193 9.53109244,16.9445378 9.69915966,16.5512605 L10.1361345,15.5226891 C10.3042017,15.1294118 10.7647059,14.9478992 11.1579832,15.1092437 Z M13.2252101,15.5226891 L13.6621849,16.5478992 C13.8302521,16.9445378 13.6420168,17.3983193 13.2453782,17.5630252 C13.1478992,17.6033613 13.0436975,17.6235294 12.9428571,17.6235294 C12.6369748,17.6235294 12.3478992,17.4453782 12.2201681,17.1495798 L11.7831933,16.1243697 C11.6151261,15.7277311 11.8033613,15.2739496 12.2,15.1092437 C12.5966387,14.9445378 13.0571429,15.1260504 13.2252101,15.5226891 L13.2252101,15.5226891 Z M17.4235294,18.5478992 C19.8638655,17.0521008 21.097479,14.4436975 21.097479,10.8 C21.097479,7.1697479 19.8672269,4.56470588 17.4403361,3.05546218 C15.4201681,1.79831933 13.1445378,1.62016807 12.2571429,1.59663866 C11.9512605,1.58655462 11.6218487,1.58655462 11.3193277,1.58655462 L11.2689076,1.58655462 C8.65042017,1.6 2.57310924,2.5210084 2.57310924,10.7428571 C2.57310924,14.4470588 3.80672269,17.0756303 6.24369748,18.5579832 L6.98991597,19.0117647 L6.98991597,20.6588235 C6.98991597,21.0252101 7.04705882,21.5092437 7.32605042,21.7512605 C7.58823529,21.989916 8.05210084,22.107563 8.65042017,22.107563 L15.0537815,22.107563 C15.4739496,22.107563 16.0352941,22.0504202 16.3445378,21.7714286 C16.6235294,21.5226891 16.6806723,21.0285714 16.6806723,20.6588235 L16.6806723,19.0016807 L17.4235294,18.5478992 L17.4235294,18.5478992 Z M12.2941176,0.043697479 C14.4084034,0.0907563025 22.6638655,0.927731092 22.6638655,10.7966387 C22.6638655,15.7613445 20.5831933,18.4336134 18.2470588,19.8655462 L18.2470588,20.6521008 C18.2470588,21.6369748 17.9680672,22.4067227 17.4033613,22.9109244 C16.8588235,23.4016807 16.0722689,23.6537815 15.0571429,23.6537815 L8.65378151,23.6537815 C7.63529412,23.6537815 6.83865546,23.4016807 6.29411765,22.9109244 C5.71596639,22.4067227 5.42689076,21.6369748 5.42689076,20.6521008 L5.42689076,19.8756303 C3.0907563,18.4537815 1.01008403,15.7613445 1.01008403,10.7361345 C1.01008403,0.783193277 9.0907563,0.0403361345 11.2655462,0.0302521008 C11.5983193,0.0336134454 11.9714286,0.0336134454 12.2941176,0.043697479 Z" id="Calavera-_2Regular"></path>
        </g>
    </g>
</svg>

<svg width="24" height="24" viewBox="0 0 24 24" xmlns="http://www.w3.org/2000/svg"><path d="M7.31 12.824c.722-.014 1.929-.293 1.929-2.014 0-.134-.007-.262-.024-.383-.161-1.395-1.27-1.63-1.916-1.644l-.238-.003h-.004c-.645.007-1.751.235-1.882 1.694-.01.1-.014.208-.014.32 0 1.656 1.046 2.016 1.92 2.03h.228zm3.495-2.014c0 2.582-1.866 3.536-3.459 3.563-.047 0-.104.003-.161.003h-.118c-1.6-.023-3.465-.974-3.465-3.583 0-.158.006-.309.02-.454.202-2.272 1.973-3.095 3.425-3.109.098-.003.205 0 .292.004 1.496.037 3.184.847 3.436 3.018.017.172.03.36.03.558zm5.859 2.014c.723-.014 1.93-.293 1.93-2.014 0-.134-.007-.262-.024-.383-.162-1.395-1.27-1.63-1.916-1.644l-.239-.003h-.003c-.646.007-1.751.235-1.883 1.694-.01.1-.013.208-.013.32 0 1.656 1.045 2.016 1.92 2.03h.228zm3.462-2.575c.02.175.034.363.034.561 0 2.582-1.866 3.536-3.46 3.563-.046 0-.103.003-.16.003h-.118c-1.6-.023-3.466-.974-3.466-3.583 0-.158.007-.309.02-.454.202-2.272 1.974-3.095 3.426-3.109.087 0 .201 0 .292.004 1.493.033 3.18.843 3.432 3.015zm-8.968 4.86c.4.168.585.622.417 1.015l-.437 1.029a.785.785 0 01-1.022.413.771.771 0 01-.417-1.015l.437-1.028a.789.789 0 011.022-.414zm2.067.414l.437 1.025a.772.772 0 01-.72 1.076.786.786 0 01-.722-.474l-.437-1.026a.772.772 0 01.417-1.015.786.786 0 011.025.414zm4.199 3.025c2.44-1.496 3.673-4.104 3.673-7.748 0-3.63-1.23-6.235-3.657-7.745-2.02-1.257-4.295-1.435-5.183-1.458-.306-.01-.635-.01-.938-.01h-.05c-2.619.013-8.696.934-8.696 9.156 0 3.704 1.234 6.333 3.67 7.815l.747.454v1.647c0 .366.057.85.336 1.092.262.239.726.357 1.324.357h6.404c.42 0 .981-.058 1.29-.337.28-.248.337-.742.337-1.112v-1.657l.743-.454zM12.294.044c2.114.047 10.37.884 10.37 10.753 0 4.964-2.08 7.637-4.417 9.069v.786c0 .985-.279 1.755-.844 2.259-.544.49-1.33.743-2.346.743H8.654c-1.019 0-1.815-.252-2.36-.743-.578-.504-.867-1.274-.867-2.259v-.776C3.09 18.454 1.01 15.76 1.01 10.736 1.01.783 9.09.04 11.266.03c.332.004.705.004 1.028.014z" fill="#5CB615" fill-rule="nonzero"/></svg>
